!!!Melodie: eigene
!!!Typ: Lied
**kern	**silbe	**silbe	**silbe	**silbe	**silbe	**silbe
*clefG2	*lang:DE	*lang:DE	*lang:DE	*lang:DE	*lang:DE	*lang:DE
*k[b-]	*	*	*	*	*	*
4f	Lobt	Er	Er	Er	Er	Heut’
=	=	=	=	=	=	=
4cc	Gott,	kommt	äu#	wech#	wird	schließt
4cc	ihr	aus	#ßert	#selt	ein	er
4cc	Chri#	sei#	sich	mit	Knecht	wie#
4cc	#sten	#nes	all	uns	und	#der
=	=	=	=	=	=	=
4dd	al#	Va#	sei#	wun#	ich	auf
8Lcc	#le	#ters	#ner	#der#	ein	die
8Jb-	|	|	|	|	|	|
4a	gleich,	Schoß	G'walt,	#lich:	Herr,	Tür
4a	in	und	wird	Fleisch	das	zum
=	=	=	=	=	=	=
4b-	sei#	wird	nied#	und	mag	schö#
4cc	#nem	ein	#rig	Blut	ein	#nen
4dd	höch#	Kind#	und	nimmt	Wech#	Pa#
4dd	#sten	#lein	ge#	er	#sel	#ra#
=	=	=	=	=	=	=
2cc	Thron,	klein,	#ring,	an	sein!	#deis;
4r	%	%	%	%	%	%
4cc	der	er	und	und	Wie	der
=	=	=	=	=	=	=
4cc	heut’	liegt	nimmt	gibt	könnt'	Che#
4cc	schließt	dort	an	uns	es	#rub
4cc	auf	e#	sich	in	doch	steht
4a	sein	#lend,	ein’s	sein’s	sein	nicht
=	=	=	=	=	=	=
4cc	Him#	nackt	Knecht’s	Va#	freund#	mehr
8Lb-	#mel#	und	Ge#	#ters	#lich#	da#
8Ja	|	|	|	|	|	|
4g	#reich	bloß	#stalt,	Reich	#er,	#für.
4cc	und	in	der	die	das	Gott
=	=	=	=	=	=	=
4a	schenkt	ei#	Schöp#	kla#	her#	sei
8Lg	uns	#nem	#fer	#re	#ze	Lob,
8Jf	|	|	|	|	|	|
4g	sei#	Krip#	al#	Gott#	Je#	Ehr’
4g	#nen	#pe#	#ler	#heit	#su#	und
=	=	=	=	=	=	=
2f	Sohn,	#lein,	Ding’	d’ran,	#lein,	Preis,
2a	und	in	der	die	das	Gott
=	=	=	=	=	=	=
4cc	schenkt	ei#	Schö#	kla#	her#	sei
8Lb-	uns	#nem	#fer	#re	#ze	Lob,
8Ja	|	|	|	|	|	|
4g	sei#	Krip#	al#	Gott#	Je#	Ehr’
4g	#nen	#pe#	#ler	#heit	#su#	und
=	=	=	=	=	=	=
1f	Sohn.	#lein.	Ding’.	d’ran.	#lein.	Preis.
==	==	==	==	==	==	==
*-	*-	*-	*-	*-	*-	*-
